!!!COM: Mozart, Wolfgang Amadeus
!!!CDT: 1756/01/27/-1791/12/05/
!!!CNT: German
!!!OTL: Piano Sonata No. 4 in E-flat major
!!!SCT1: K<sup>1</sup> 282
!!!SCT2: K<sup>6</sup> 189g
!!!OMV: Mvmt. 3
!!!OMD: Allegro
!!!ODT: 1774///
**kern	**kern	**dynam
*staff2	*staff1	*staff1/2
*>[A,A,B,B]	*>[A,A,B,B]	*>[A,A,B,B]
*>norep[A,B]	*>norep[A,B]	*>norep[A,B]
*>A	*>A	*>A
*clefG2	*clefG2	*clefG2
*k[b-e-a-]	*k[b-e-a-]	*k[b-e-a-]
*E-:	*E-:	*E-:
*M2/4	*M2/4	*M2/4
8r	8b-'\	p
=1	=1	=1
8r	4.b-\	.
8e-/ 8g/	.	.
4e-/ 4g/	.	.
.	8bb-'\	.
=2	=2	=2
8r	(4.bb-\	.
8d/ 8f/	.	.
4d/ 4f/	.	.
.	8aa-\)	.
=3	=3	=3
8e-/L	(16aa-\LL	.
.	16gg\	.
8G/	16ff\	.
.	16ee-\JJ	.
8A-/	16cc\LL	.
.	16ee-\	.
8B-/J	16dd\	.
.	16ff\JJ	.
=4	=4	=4
8c/L	16ee-\LL	.
.	16gg\	.
8d/	16ff\	.
.	16aa-\JJ)	.
8e-/J	8gg'\L	.
8r	8b-'\J	f
=5	=5	=5
8r	4.b-\	.
8e-/ 8g/	.	.
4e-/ 4g/	.	.
.	8bb-'\	.
=6	=6	=6
8r	(4.bb-\	.
8d/ 8f/	.	.
4d/ 4f/	.	.
.	8aa-\)	.
=7	=7	=7
8e-/L	(16aa-\LL	.
.	16gg\	.
8g/ 8b-/	16ff\	.
.	16ee-\JJ	.
8f/ 8b-/	8dd'\ 8aa-'\L)	.
8e-/ 8b-/J	8ee-'\ 8gg'\J	.
=8	=8	=8
8B-/L	8ee-\ (8gg\L	.
8b-/	8dd\ 8ff\J)	.
8B-/J	8r	.
8r	8ff\	p
=9	=9	=9
(16B-/LL	(16een\LK	.
16f/	8.ff\J)	.
16d/	.	.
16f/JJ	.	.
16B-/LL	8r	.
16f/	.	.
16d/	8ff\	.
16f/JJ	.	.
=10	=10	=10
.	16eenq/LL	.
.	16ffq/JJ	.
16An/LL	(8.eee-\L	f
16f/	.	.
16c/	.	.
16f/JJ	16ccc\k	.
16A/LL	8aan\)	.
16f/	.	.
16c/	8ee-'\J	.
16f/JJ	.	.
=11	=11	=11
16B-/LL	(16dd\LK	p
16f/	8.ff\J)	.
16d/	.	.
16f/JJ	.	.
16B-/LL	8r	.
16f/	.	.
16d/	8ff\	.
16f/JJ	.	.
=12	=12	=12
.	16eenq/LL	.
.	16ffq/JJ	.
16An/LL	(8.eee-\L	f
16f/	.	.
16c/	.	.
16f/JJ	16ccc\k	.
16A/LL	8aan\)	.
16f/	.	.
16c/	8ee-\J	.
16f/JJ)	.	.
=13	=13	=13
4B-/	(16dd\LL	.
.	16ee-\	.
.	16ff\	.
.	16gg\JJ)	.
4d/	(16ff\LL	.
.	16gg\	.
.	16aan\	.
.	16bb-\JJ)	.
=14	=14	=14
*^	*	*
4e-/	4.r	(16ff#\LL	.
.	.	16gg\)	.
.	.	(16dd\	.
.	.	16ee-\JJ)	.
8r	.	(16bn/LL	.
.	.	16cc/)	.
*v	*v	*	*
*clefF4	*	*
*^	*	*
8e-/	8E-\	(16g/	.
.	.	16cc/JJ)	.
=15	=15	=15	=15
(8d/L	4F\	8b-/L	.
8c/J)	.	8an/J	.
4r	16F\LL	4r	.
.	16G\	.	.
.	16E-\	.	.
.	16F\JJ	.	.
*v	*v	*	*
=16	=16	=16
4D\	8r	.
.	(8ff\L	p
*clefG2	*	*
8r	8ee-\	.
8d/ 8f/	8dd\J)	.
=17	=17	=17
4e-/ 4g/	8r	.
.	8bn'\L	.
8r	(8b\	.
8e-/ 8g/	8cc\J)	.
=18	=18	=18
4f/ 4an/	8r	.
.	(8gg\L	.
8r	8ff\	.
8f/ 8a/	8ee-\J)	.
=19	=19	=19
4g/ 4b-/	8r	.
.	8cc#'\L	.
8r	(8cc#\	.
8g/ 8b-/	8dd\J)	.
*clefF4	*	*
=20	=20	=20
*	*^	*
(16D\LL	2bb-/	4b-\ 4dd\ 4ff\	f
16B-\	.	.	.
16F\	.	.	.
16B-\JJ	.	.	.
16D\LL	.	4r	.
16B-\	.	.	.
16F\	.	.	.
16B-\JJ	.	.	.
=21	=21	=21	=21
16E-\LL	2gg/	4g\ 4cc\ 4ee-\	.
16c\	.	.	.
16G\	.	.	.
16c\JJ	.	.	.
16E-\LL	.	4r	.
16c\	.	.	.
16G\	.	.	.
16c\JJ	.	.	.
*	*v	*v	*
=22	=22	=22
16F\LL	(16gg\LL	.
16d\	16ff\	.
16B-\	16ee-\	.
16d\JJ	16dd\JJ)	.
16F\LL	(16dd\LL	.
16e-\	16cc\	.
16c\	16b-\	.
16e-\JJ	16an\JJ)	.
=23	=23	=23
4B-\ 4d\)	(16cc\LL	.
.	16b-\	.
.	16dd\	.
.	16cc\JJ	.
4r	16ee-\LL	.
.	16dd\	.
.	16ff\	.
.	16ee-\JJ)	.
=24	=24	=24
4r	(8gg\	p
.	4ff\	.
*clefG2	*	*
4d/ 4f/	.	.
.	8dd\)	.
=25	=25	=25
4r	(8bn\	.
.	4dd\	.
4e-/ 4g/	.	.
.	8cc\)	.
=26	=26	=26
4r	(8ff#\	.
.	4gg\	.
4f/ 4an/	.	.
.	8ee-\)	.
=27	=27	=27
4r	(8cc#\	.
.	4ee-\	.
4g/ 4b-/	.	.
.	8dd\)	.
*clefF4	*	*
=28	=28	=28
*	*^	*
(16D\LL	2bb-/	4b-\ 4dd\ 4ff\	f
16B-\	.	.	.
16F\	.	.	.
16B-\JJ	.	.	.
16D\LL	.	4r	.
16B-\	.	.	.
16F\	.	.	.
16B-\JJ	.	.	.
=29	=29	=29	=29
16E-\LL	2gg/	4g\ 4cc\ 4ee-\	.
16c\	.	.	.
16G\	.	.	.
16c\JJ	.	.	.
16E-\LL	.	4r	.
16c\	.	.	.
16G\	.	.	.
16c\JJ	.	.	.
*	*v	*v	*
=30	=30	=30
16F\LL	(16gg\LL	.
16d\	16ff\	.
16B-\	16ee-\	.
16d\JJ	16dd\JJ)	.
16F\LL	(16dd\LL	.
16e-\	16cc\	.
16c\	16b-\	.
16e-\JJ	16an\JJ)	.
=31	=31	=31
4G\ 4d\)	(16an\LL	.
.	16b-\)	.
.	16cc'\	.
.	16dd'\JJ	.
4r	16ee-'\LL	.
.	16ff'\	.
.	16gg'\	.
.	16aan'\JJ	.
=32	=32	=32
(16D\LL	(16bb-\LL	.
16B-\	16ccc\	.
16F\	16ddd\	.
16B-\JJ	16aan\JJ	.
16D\LL	4bb-\)	.
16B-\	.	.
16F\	.	.
16B-\JJ	.	.
=33	=33	=33
16E-\LL	(16gg\LL	.
16B-\	16aan\	.
16G\	16bb-\	.
16B-\JJ	16ff#\JJ	.
16E-\LL	4gg\)	.
16B-\	.	.
16G\	.	.
16B-\JJ	.	.
=34	=34	=34
16F\LL	(16gg\LL	.
16d\	16ffn\	.
16B-\	16ee-\	.
16d\JJ	16dd\JJ)	.
16F\LL	(16dd\LL	.
16e-\	16cc\	.
16c\	16b-\	.
16e-\JJ	16an\JJ)	.
=35	=35	=35
4B-\ 4d\)	(16b-\LL	.
.	16cc\	.
.	16dd\	.
.	16ee-\JJ	.
4r	16ff\LL	.
.	16gg\	.
.	16aan\	.
.	16bb-\JJ)	.
=36	=36	=36
8r	(16ff#\LL	.
.	16gg\	.
8e-'\L	16ee-\	.
.	16cc\JJ	.
8c'\	16dd\LL	.
.	16ee-\	.
8f'\J	16cc\	.
.	16an\JJ)	.
=37	=37	=37
4d'\	(16b-\LL	.
.	16cc\	.
.	16dd\	.
.	16ee-\JJ	.
4r	16ffn\LL	.
.	16gg\	.
.	16aan\	.
.	16bb-\JJ)	.
=38	=38	=38
8r	(16ff#\LL	.
.	16gg\	.
8e-'\L	16ee-\	.
.	16cc\JJ	.
8c'\	16dd\LL	.
.	16ee-\	.
8f'\J	16cc\	.
.	16an\JJ)	.
=39	=39	=39
8B-\L	4b-\	.
8F\	.	.
8BB-\J	8r	.
=:|!|:	=:|!|:	=:|!|:
*>B	*>B	*>B
8r	8b-'\	p
=40	=40	=40
8r	4.b-\	.
8F\ 8d-\	.	.
4F\ 4d-\	.	.
.	8bb-'\	.
=41	=41	=41
8r	4.bb-\	.
8En\ 8c\	.	.
4E\ 4c\	.	.
.	8cc\	f
*clefG2	*	*
=42	=42	=42
8r	(16dd-\LL	.
.	16cc\	.
8f/L	16ddn\	.
.	16cc\JJ	.
8g/	16ee-\LL	.
.	16cc\	.
8b-/J	16een\	.
.	16cc\JJ	.
=43	=43	=43
8a-/L	16ff\LL	.
.	16cc\	.
8en/	16gg\	.
.	16cc\JJ	.
8f/J	8aa-'\L)	.
8r	8a-'\J	p
*clefF4	*	*
=44	=44	=44
8r	4.a-/	.
8E-\ 8c-\	.	.
4E-\ 4c-\	.	.
.	8aa-'\	.
=45	=45	=45
8r	4.aa-\	.
8Dn\ 8B-\	.	.
4D\ 4B-\	.	.
.	8b-\	f
*clefG2	*	*
=46	=46	=46
8r	(16cc-\LL	.
.	16b-\	.
8e-/L	16cc-\	.
.	16b-\JJ	.
8f/	16dd-\LL	.
.	16b-\	.
8a-/J	16ddn\	.
.	16b-\JJ	.
=47	=47	=47
8g/L	16ee-\LL	.
.	16b-\	.
8d/	16ff\	.
.	16b-\JJ	.
8e-/J	8gg'\)	p
*clefF4	*	*
8E-'\	8r	.
=48	=48	=48
4.E-\	8r	.
.	8g\ 8dd-\	.
.	[4g\ [4dd-\	.
8e-'\	.	.
=49	=49	=49
4.e-\	8g\] 8dd-\L]	.
.	8a-\ 8cc\J	.
.	[4a-\ [4cc\	f
8EE-/ 8E-/	.	.
=50	=50	=50
4.EE-/ 4.E-/	8a-/] 8cc/L]	.
.	8g-/ 8b-/J	.
.	[4g-/ [4b-/	.
8E-\ 8e-\	.	.
=51	=51	=51
4.E-\ 4.e-\	8g-/] 8b-/L]	.
.	8f/ 8an/J	.
.	4f/ (4an/	p
8F'\	.	.
=52	=52	=52
4.F\	8f\) 8an\L	.
.	8a\ 8ee-\J	.
.	[4a\ [4ee-\	.
8f'\	.	.
=53	=53	=53
4.f\	8a\] 8ee-\L]	.
.	8b-\ 8dd-\J	.
.	[4b-\ [4dd-\	f
8FF/ 8F/	.	.
=54	=54	=54
4.FF/ 4.F/	8b-\] 8dd-\L]	.
.	8a-\ 8cc\J	.
.	[4a-\ [4cc\	.
8F\ 8f\	.	.
=55	=55	=55
4.F\ 4.f\	8a-/] 8cc/L]	.
.	8g/ 8bn/	.
.	8g/ 8b/J	.
*clefG2	*	*
(16f/LL	8b\	.
16g/JJ)	.	.
=56	=56	=56
(16e-/LL	(8cc\L	.
16g/	.	.
16dn/	8ddn\	.
16g/JJ	.	.
16c/LL	8ee-\	.
16g/	.	.
16Bn/	8ff\J)	.
16g/JJ	.	.
=57	=57	=57
16c/LL	8ee-\L	.
16g/	.	.
16d/	8dd'\	.
16g/JJ	.	.
16e-/LL	8cc'\	.
16g/	.	.
16f/	8bn'\J	.
16g/JJ	.	.
=58	=58	=58
16e-/LL	(8cc\L	.
16g/	.	.
16d/	8dd\	.
16g/JJ	.	.
16c/LL	8ee-\	.
16g/	.	.
16B-/	8ff\J)	.
16g/JJ	.	.
=59	=59	=59
8c/L)	8ee-\L	.
8A-'/ 8a-'/	8ff#'\ 8ccc'\	.
8G'/ 8g'/J	8gg'\ 8bbn'\J	.
8r	8r	.
*clefF4	*	*
=60	=60	=60
*^	*	*
[2d/	(8F#\L	8cc\L	p
.	8G\	8bn\J	.
.	8A-\	8r	.
.	8G\J)	8b'\	.
=61	=61	=61	=61
2d/]	(8G\L	(8bn\L	.
.	8A-\	8b-\J)	.
.	8B-\	8r	.
.	8A-\J)	8b-'\	.
=62	=62	=62	=62
8e-/	8G\	4.b-\	.
*v	*v	*	*
*clefG2	*	*
*^	*	*
4.r	8e-/ 8g/	.	.
.	4e-/ 4g/	.	.
.	.	8bb-'\	.
*v	*v	*	*
=63	=63	=63
8r	(4.bb-\	.
8d/ 8f/	.	.
4d/ 4f/	.	.
.	8aa-\)	.
=64	=64	=64
8e-/L	(16aa-\LL	.
.	16gg\	.
8G/	16ff\	.
.	16ee-\JJ	.
8A-/	16cc\LL	.
.	16ee-\	.
8B-/J	16dd\	.
.	16ff\JJ	.
=65	=65	=65
8c/L	16ee-\LL	.
.	16gg\	.
8d/	16ff\	.
.	16aa-\JJ	.
8e-/J	8gg'\L)	.
8r	8b-'\J	f
=66	=66	=66
8r	4.b-\	.
8e-/ 8g/	.	.
4e-/ 4g/	.	.
.	8bb-'\	.
=67	=67	=67
8r	(4.bb-\	.
8d/ 8f/	.	.
4d/ 4f/	.	.
.	8aa-\)	.
=68	=68	=68
8e-/L	(16aa-\LL	.
.	16gg\	.
8g/ 8b-/	16ff\	.
.	16ee-\JJ	.
8f/ 8b-/	8dd'\ 8aa-'\L)	.
8e-/ 8b-/J	8ee-'\ 8gg'\J	.
=69	=69	=69
8B-/L	8ee-\ (8gg\L	.
8b-/	8dd\ 8ff\J)	.
8B-/J	8r	.
8r	8b-\	p
*clefF4	*	*
=70	=70	=70
(16E-\LL	(16an/LK	.
16B-\	8.b-/J)	.
16G\	.	.
16B-\JJ	.	.
16E-\LL	8r	.
16B-\	.	.
16G\	8b-\	.
16B-\JJ	.	.
=71	=71	=71
.	16aq/LL	.
.	16b-q/JJ	.
16D\LL	(8.aa-\L	f
16B-\	.	.
16F\	.	.
16B-\JJ	16ff\k	.
16D\LL	8dd\)	.
16B-\	.	.
16F\	8a-'\J	.
16B-\JJ	.	.
=72	=72	=72
16E-\LL	16g/LK	p
16B-\	8.b-/J	.
16G\	.	.
16B-\JJ	.	.
16E-\LL	8r	.
16B-\	.	.
16G\	8b-\	.
16B-\JJ	.	.
=73	=73	=73
.	16anq/LL	.
.	16ccq/JJ	.
16D\LL	(8.aa-\L	f
16B-\	.	.
16F\	.	.
16B-\JJ	16ff\k	.
16D\LL	8dd\)	.
16B-\	.	.
16F\	8a-\J	.
16B-\JJ)	.	.
=74	=74	=74
.	16gq/LL	.
.	16a-q/JJ	.
4E-\	(16g\LL	.
.	16b-\	.
.	16ee-\	.
.	16gg\JJ)	.
4G\	(16bb-\LL	.
.	16gg\	.
.	16ee-\	.
.	16b-\JJ)	.
=75	=75	=75
4A-\	16cc\LL	.
.	(16ccc\	.
.	16bbn\	.
.	16ccc\JJ)	.
8r	(16gg\LL	.
.	16aa-\)	.
*clefG2	*	*
8A-/ 8a-/	(16een\	.
.	16ff\JJ)	.
=76	=76	=76
*^	*	*
4B-\	(8g/L	(8ee-\L	.
.	8f/J)	8dd\J)	.
*v	*v	*	*
*clefF4	*	*
*^	*	*
(16B-\LL	4r	4r	.
16c\	.	.	.
16A-\	.	.	.
16B-\JJ	.	.	.
*v	*v	*	*
=77	=77	=77
4G\)	8r	.
.	(8bb-\L	p
*clefG2	*	*
8r	8aa-\	.
8g/ 8b-/	8gg\J)	.
=78	=78	=78
4a-\ 4cc\	8r	.
.	8een'\L	.
8r	(8ee\	.
8a-\ 8cc\	8ff\J)	.
=79	=79	=79
4b-\ 4dd\	8r	.
.	(8ccc\L	.
8r	8bb-\	.
8b-\ 8dd\	8aa-\J)	.
=80	=80	=80
4cc\ 4ee-\	8r	.
.	8ff#'\L	.
8r	(8ff#\	.
8cc\ 8ee-\	8gg\J)	.
*clefF4	*	*
=81	=81	=81
*	*^	*
(16GG/LL	2ee-/	4e-\ 4g\ 4b-\	f
16E-/	.	.	.
16BB-/	.	.	.
16E-/JJ	.	.	.
16GG/LL	.	4r	.
16E-/	.	.	.
16BB-/	.	.	.
16E-/JJ	.	.	.
=82	=82	=82	=82
16AA-/LL	2cc/	4c\ 4f\ 4a-\	.
16F/	.	.	.
16C/	.	.	.
16F/JJ	.	.	.
16AA-/LL	.	4r	.
16F/	.	.	.
16C/	.	.	.
16F/JJ	.	.	.
*	*v	*v	*
=83	=83	=83
16BB-\LL	(16cc/LL	.
16G\	16b-/	.
16E-\	16a-/	.
16G\JJ	16g/JJ)	.
16BB-\LL	(16g/LL	.
16A-\	16f/	.
16F\	16e-/	.
16A-\JJ)	16d/JJ	.
=84	=84	=84
4E-\ 4G\	16f/LL	.
.	16e-/	>
.	16g/	.
.	16f/JJ	.
4r	16a-/LL	.
.	16g/	.
.	16b-/	.
.	16a-/JJ)	.
=85	=85	=85
4r	(8cc\	p
.	4b-\	.
4G\ 4B-\	.	.
.	8g/)	.
=86	=86	=86
4r	(8en/	.
.	4g/	.
4A-\ 4c\	.	.
.	8f/)	.
=87	=87	=87
4r	(8bn\	.
.	4cc\	.
4B-\ 4d\	.	.
.	8a-/)	.
=88	=88	=88
4r	(8f#/	.
.	4a-/	.
4c\ 4e-\	.	.
.	8g/)	.
=89	=89	=89
*	*^	*
(16GG/LL	2ee-/	4e-\ 4g\ 4b-\	f
16E-/	.	.	.
16BB-/	.	.	.
16E-/JJ	.	.	.
16GG/LL	.	4r	.
16E-/	.	.	.
16BB-/	.	.	.
16E-/JJ	.	.	.
=90	=90	=90	=90
16AA-/LL	2cc/	4c\ 4f\ 4a-\	.
16F/	.	.	.
16C/	.	.	.
16F/JJ	.	.	.
16AA-/LL	.	4r	.
16F/	.	.	.
16C/	.	.	.
16F/JJ	.	.	.
*	*v	*v	*
=91	=91	=91
16BB-\LL	(16cc/LL	.
16G\	16b-/	.
16E-\	16a-/	.
16G\JJ	16g/JJ)	.
16BB-\LL	(16g/LL	.
16A-\	16f/	.
16F\	16e-/	.
16A-\JJ	16d/JJ	.
=92	=92	=92
4C\ 4G\)	16e-\LL)	.
.	(16ee-\	.
.	16ff\	.
.	16gg\JJ	.
4r	16aa-\LL	.
.	16bb-\	.
.	16ccc\	.
.	16ddd\JJ	.
=93	=93	=93
(16G\LL	16eee-\LL	.
16e-\	16bb-\	.
16B-\	16gg\	.
16e-\JJ	16ee-\JJ)	.
16G\LL	4ee-\	.
16e-\	.	.
16B-\	.	.
16e-\JJ	.	.
=94	=94	=94
.	16ddq/LL	.
.	16ee-q/JJ	.
16A-\LL	(16cc\LL	.
16f\	16ff\	.
16c\	16aa-\	.
16f\JJ	16ccc\JJ)	.
16A-\LL	4ccc\	.
16f\	.	.
16c\	.	.
16f\JJ	.	.
*clefG2	*	*
=95	=95	=95
.	16bbnq/LL	.
.	16cccq/JJ	.
16B-/LL	(16ccc\LL	.
16g/	16bb-\	.
16e-/	16aa-\	.
16g/JJ	16gg\JJ)	.
16B-/LL	(16gg\LL	.
16a-/	16ff\	.
16f/	16ee-\	.
16a-/JJ	16dd\JJ	.
=96	=96	=96
4e-/ 4g/)	16ee-\LL	.
.	16ff\	.
.	16gg\	.
.	16aa-\JJ	.
4r	16bb-\LL	.
.	16ccc\	.
.	16ddd\	.
.	16eee-\JJ)	.
=97	=97	=97
8r	(16bbn\LL	.
.	16ccc\	.
8a-'/L	16aa-\	.
.	16ff\JJ)	.
8f'/	(16gg\LL	.
.	16aa-\	.
8b-'/J	16ff\	.
.	16dd\JJ)	.
=98	=98	=98
4g/	(16ee-\LL	.
.	16ff\	.
.	16gg\	.
.	16aa-\JJ	.
4r	16bb-\LL	.
.	16gg\	.
.	16ee-\	.
.	16b-\JJ)	.
*clefF4	*	*
=99	=99	=99
8r	(16bn/LL	.
.	16cc/	.
8A-'\L	16a-/	.
.	16f/JJ)	.
8F'\	(16g/LL	.
.	16a-/	.
8B-'\J	16f/	.
.	16d/JJ)	.
=100	=100	=100
4E-\	16e-'/LL	.
.	(16b-/	.
.	16an/	.
.	16b-/JJ	.
*clefG2	*	*
8r	16cc\LL	.
.	16b-\	.
8B-/ 8f/ 8a-/	16dd\	.
.	16b-\JJ	.
=101	=101	=101
4e-/ 4g/	16ee-\LL	.
.	16b-\	.
.	16an\	.
.	16b-\JJ	.
8r	16cc\LL	.
.	16b-\	.
8B-/ 8f/ 8a-/	16dd\	.
.	16b-\JJ	.
=102	=102	=102
4e-/ 4g/	4ee-\)	.
8r	8r	.
==:|!	==:|!	==:|!
*-	*-	*-
!!!SMS: Alte Mozart-Ausgabe, Band 20, Breitkopf &amp; H&auml;rtel 1877-1883.
!!!ONB: Stich und Druck von Breitkopf &amp; H&auml;rtel in Leipzig
!!!ONB: Ausgegeben 1878
!!!ENC: Craig Stuart Sapp
!!!END: 2009/10/05/
!!!title: @{OTL}, K 282 (189g), @{OMV}
!!!hum2abc: --no-tempo -s 0.65 --spacing 2.0 -p "%gracespace  0 6.0 12.0"
!!!ONB: Not proofread
